src/main/resources/static/fa/svgs/solid/brazilian-real-sign.svg

<svg xmlns="http://www.w3.org/2000/svg" viewBox="0 0 512 512"><!--! Font Awesome Free 6.5.2 by @fontawesome - https://fontawesome.com License - https://fontawesome.com/license/free (Icons: CC BY 4.0, Fonts: SIL OFL 1.1, Code: MIT License) Copyright 2024 Fonticons, Inc. --><path d="M400 0c17.7 0 32 14.3 32 32V50.2c12.5 2.3 24.7 6.4 36.2 12.1l10.1 5.1c15.8 7.9 22.2 27.1 14.3 42.9s-27.1 22.2-42.9 14.3l-10.2-5.1c-9.9-5-20.9-7.5-32-7.5h-1.7c-29.8 0-53.9 24.1-53.9 53.9c0 22 13.4 41.8 33.9 50l52 20.8c44.7 17.9 74.1 61.2 74.1 109.4v3.4c0 51.2-33.6 94.6-80 109.2V480c0 17.7-14.3 32-32 32s-32-14.3-32-32V460.6c-15-3.5-29.4-9.7-42.3-18.3l-23.4-15.6c-14.7-9.8-18.7-29.7-8.9-44.4s29.7-18.7 44.4-8.9L361.2 389c10.8 7.2 23.4 11 36.3 11c27.9 0 50.5-22.6 50.5-50.5v-3.4c0-22-13.4-41.8-33.9-50l-52-20.8C317.3 257.4 288 214.1 288 165.9C288 114 321.5 70 368 54.2V32c0-17.7 14.3-32 32-32zM0 64C0 46.3 14.3 32 32 32h80c79.5 0 144 64.5 144 144c0 58.8-35.2 109.3-85.7 131.7l51.4 128.4c6.6 16.4-1.4 35-17.8 41.6s-35-1.4-41.6-17.8L106.3 320H64V448c0 17.7-14.3 32-32 32s-32-14.3-32-32V288 64zM64 256h48c44.2 0 80-35.8 80-80s-35.8-80-80-80H64V256z"/></svg>

<svg xmlns="http://www.w3.org/2000/svg" viewBox="0 0 512 512"><!--! Font Awesome Free 6.1.1 by @fontawesome - https://fontawesome.com License - https://fontawesome.com/license/free (Icons: CC BY 4.0, Fonts: SIL OFL 1.1, Code: MIT License) Copyright 2022 Fonticons, Inc. --><path d="M400 .0003C417.7 .0003 432 14.33 432 32V50.22C444.5 52.52 456.7 56.57 468.2 62.3L478.3 67.38C494.1 75.28 500.5 94.5 492.6 110.3C484.7 126.1 465.5 132.5 449.7 124.6L439.5 119.5C429.6 114.6 418.7 112 407.6 112H405.9C376.1 112 352 136.1 352 165.9C352 187.9 365.4 207.7 385.9 215.9L437.9 236.7C482.7 254.6 512 297.9 512 346.1V349.5C512 400.7 478.4 444.1 432 458.7V480C432 497.7 417.7 512 400 512C382.3 512 368 497.7 368 480V460.6C352.1 457.1 338.6 450.9 325.7 442.3L302.2 426.6C287.5 416.8 283.6 396.1 293.4 382.2C303.2 367.5 323 363.6 337.8 373.4L361.2 389C371.9 396.2 384.6 400 397.5 400C425.4 400 448 377.4 448 349.5V346.1C448 324.1 434.6 304.3 414.1 296.1L362.1 275.3C317.3 257.4 288 214.1 288 165.9C288 114 321.5 69.99 368 54.21V32C368 14.33 382.3 0 400 0L400 .0003zM.0003 64C.0003 46.33 14.33 32 32 32H112C191.5 32 256 96.47 256 176C256 234.8 220.8 285.3 170.3 307.7L221.7 436.1C228.3 452.5 220.3 471.1 203.9 477.7C187.5 484.3 168.9 476.3 162.3 459.9L106.3 320H64V448C64 465.7 49.67 480 32 480C14.33 480 0 465.7 0 448L.0003 64zM64 256H112C156.2 256 192 220.2 192 176C192 131.8 156.2 96 112 96H64V256z"/></svg>
